mobile/24/svg/image-24.svg

<svg width="24" height="24" fill="none" xmlns="http://www.w3.org/2000/svg"><path d="M18.25 20.75H5.75a2.503 2.503 0 0 1-2.5-2.5V5.75c0-1.379 1.122-2.5 2.5-2.5h12.5c1.379 0 2.5 1.121 2.5 2.5v12.5c0 1.379-1.121 2.5-2.5 2.5zM5.75 5a.75.75 0 0 0-.75.75v12.5c0 .413.336.75.75.75h12.5c.413 0 .75-.337.75-.75V5.75a.752.752 0 0 0-.75-.75H5.75z" fill="#000"/><path d="M16.5 17.25h-9a.75.75 0 0 1-.75-.75v-2.301c0-.264.105-.518.291-.705l2.783-2.799a1.001 1.001 0 0 1 1.415-.004L14 13.439l.792-.747a1 1 0 0 1 1.396.023l.773.779c.186.187.29.44.29.704V16.5a.752.752 0 0 1-.751.75zM17.25 8h-2.5v2.5h2.5V8z" fill="#000"/></svg>

<svg width="24" height="24" viewBox="0 0 24 24" fill="none" xmlns="http://www.w3.org/2000/svg">
<path d="M18.25 20.75H5.75C4.372 20.75 3.25 19.629 3.25 18.25V5.75C3.25 4.371 4.372 3.25 5.75 3.25H18.25C19.629 3.25 20.75 4.371 20.75 5.75V18.25C20.75 19.629 19.629 20.75 18.25 20.75ZM5.75 5C5.336 5 5 5.337 5 5.75V18.25C5 18.663 5.336 19 5.75 19H18.25C18.663 19 19 18.663 19 18.25V5.75C19 5.337 18.663 5 18.25 5H5.75Z" fill="black"/>
<path d="M16.5 17.25H7.5C7.086 17.25 6.75 16.914 6.75 16.5V14.199C6.75 13.935 6.855 13.681 7.041 13.494L9.824 10.695C10.214 10.303 10.847 10.302 11.239 10.691L14 13.439L14.792 12.692C15.187 12.32 15.806 12.33 16.188 12.715L16.961 13.494C17.147 13.681 17.251 13.934 17.251 14.198V16.5C17.25 16.914 16.914 17.25 16.5 17.25Z" fill="black"/>
<path d="M17.25 8H14.75V10.5H17.25V8Z" fill="black"/>
</svg>
